X: 1
T: Take Me Out to the Ball Game
C: Albert von Tilzer
R: waltz
Z: 2006 John Chambers <jc:trillian.mit.edu>
M: 3/4
L: 1/4
K: G
[| "G"Gzg | "(Em)"edB | "D7"d3 | A3 | "G"Gzg | "(Em)"edB | "D"d3- | d3 |
| "E7"e^de | Bcd | "Am"e2c | A3 | "A7"e2e | efg | "D"afe | dBA |
|  "G"Gzg | "(Em)"edB | "D7"d3 | A2B | "G"G2A | "G7"Bcd | "C"e3- | eef |
|  "C"gz2 | "A7/C#"gz2 | "D"gfe | "E7"d^cd | "A(m)"e3 | "D7"f3 | "G"g3- | gz2 |]
